svgs/sharp-solid/house-circle-exclamation.svg

<svg xmlns="http://www.w3.org/2000/svg" viewBox="0 0 640 512"><!--! Font Awesome Pro 6.6.0 by @fontawesome - https://fontawesome.com License - https://fontawesome.com/license (Commercial License) Copyright 2024 Fonticons, Inc. --><path d="M520.5 193.7L288.4 0 0 240l0 47.6 64.1 0 0 224.4L224 512l0-160 96.7 0c8.1-89.7 83.5-160 175.3-160c8.3 0 16.5 .6 24.5 1.7zM496 512a144 144 0 1 0 0-288 144 144 0 1 0 0 288zm16-64l-32 0 0-32 32 0 0 32zm0-176l0 16 0 80 0 16-32 0 0-16 0-80 0-16 32 0z"/></svg>

<svg xmlns="http://www.w3.org/2000/svg" viewBox="0 0 640 512"><!--! Font Awesome Pro 6.4.0 by @fontawesome - https://fontawesome.com License - https://fontawesome.com/license (Commercial License) Copyright 2023 Fonticons, Inc. --><path d="M520.5 193.7L288.4 0 0 240v47.6H64.1V512H224V352h96.7c8.1-89.7 83.5-160 175.3-160c8.3 0 16.5 .6 24.5 1.7zM496 512a144 144 0 1 0 0-288 144 144 0 1 0 0 288zm16-64H480V416h32v32zm0-176v16 80 16H480V368 288 272h32z"/></svg>
